_assets/images/icon-tidal.svg

<svg fill="none" height="24" viewBox="0 0 36 24" width="36" xmlns="http://www.w3.org/2000/svg"><path d="m5.95811 0h.07447c.56807.651668 1.21025 1.22886 1.81537 1.8526l4.11485 4.11482v.07447c-1.99209 1.98294-3.97521 3.98451-5.96745 5.96741-2.00156-1.9922-3.9938-3.99378-5.99535-5.98603.102591-.1955.297905-.32583.446858-.48409 1.833982-1.8526 3.695892-3.67727 5.511252-5.53918zm12.00929 0h.0745c.056.0837859.1117.158262.1862.232739 1.9271 1.908451 3.8264 3.844841 5.7719 5.743991-.0465.11171-.149.18619-.2327.26997-1.9269 1.91777-3.8449 3.8448-5.772 5.7626-2.0108-1.9829-3.9844-4.00309-6.0046-5.97672 1.955-2.03879 4.0124-4.0031 5.9767-6.03258zm12.0093 0h.0745c.3724.446858.8099.828549 1.2102 1.24748 1.5082 1.50814 3.0072 3.00698 4.5152 4.51513.0746.08378.1957.15826.2234.27928-2.0202 1.96432-3.9752 4.00311-6.0047 5.96741l-5.7253-5.72536c-.0931-.1024-.2141-.17688-.2607-.30721 1.0148-.98682 2.0016-2.00156 3.007-2.99768.9868-.99612 1.9922-1.96431 2.9604-2.97905zm-17.9022 17.9209c1.9643-1.9643 3.9379-3.9287 5.9022-5.9023l.0836.0373c1.9737 1.9829 3.9473 3.9658 5.9395 5.9301-.065.149-.2046.2328-.3072.3538-1.4335 1.4244-2.8673 2.8673-4.301 4.2917-.4655.4469-.9123.9496-1.3869 1.3685-.6796-.6144-1.3034-1.3033-1.9645-1.9364-1.3404-1.3406-2.6717-2.6811-4.0216-4.0124.0186-.0372.0373-.0931.0559-.1303z" fill="#fff"/></svg>

<svg width="36" height="24" viewBox="0 0 36 24" fill="none" xmlns="http://www.w3.org/2000/svg">
<path d="M5.95811 0H6.03258C6.60065 0.651668 7.24283 1.22886 7.84795 1.8526L11.9628 5.96742V6.04189C9.97071 8.02483 7.98759 10.0264 5.99535 12.0093C3.99379 10.0171 2.00155 8.01552 0 6.02327C0.102591 5.82777 0.297905 5.69744 0.446858 5.53918C2.28084 3.68658 4.14275 1.86191 5.95811 0ZM17.9674 0H18.0419C18.0979 0.0837859 18.1536 0.158262 18.2281 0.232739C20.1552 2.14119 22.0545 4.07758 24 5.97673C23.9535 6.08844 23.851 6.16292 23.7673 6.2467C21.8404 8.16447 19.9224 10.0915 17.9953 12.0093C15.9845 10.0264 14.0109 8.00621 11.9907 6.03258C13.9457 3.99379 16.0031 2.02948 17.9674 0ZM29.9767 0H30.0512C30.4236 0.446858 30.8611 0.828549 31.2614 1.24748C32.7696 2.75562 34.2686 4.25446 35.7766 5.76261C35.8512 5.84639 35.9723 5.92087 36 6.04189C33.9798 8.00621 32.0248 10.045 29.9953 12.0093L24.27 6.28394C24.1769 6.18154 24.0559 6.10706 24.0093 5.97673C25.0241 4.98991 26.0109 3.97517 27.0163 2.97905C28.0031 1.98293 29.0085 1.01474 29.9767 0ZM12.0745 17.9209C14.0388 15.9566 16.0124 13.9922 17.9767 12.0186L18.0603 12.0559C20.034 14.0388 22.0076 16.0217 23.9998 17.986C23.9348 18.135 23.7952 18.2188 23.6926 18.3398C22.2591 19.7642 20.8253 21.2071 19.3916 22.6315C18.9261 23.0784 18.4793 23.5811 18.0047 24C17.3251 23.3856 16.7013 22.6967 16.0402 22.0636C14.6998 20.723 13.3685 19.3825 12.0186 18.0512C12.0372 18.014 12.0559 17.9581 12.0745 17.9209Z" fill="white"/>
</svg>
